X: 19830
T: Jerry O' Connors
R: reel
M: 4/4
K: Gdorian
|:DGGG BFGF|DGGB AGFE|DGGG AGFA|1 defd cAGF:|2 defd cAFA||
|:dggg agfg|dgab agfe|defd fece|1 defd cAFA:|2 defd cAFD||
|:G2 dG BGdG|G2 dB cAFD|G2 dGBG (3ABc|1 defd cAFD:|2 defd cAFA||
B3 c A2 FA|B2 GB cAFA|B2GB ADFA|defd cAFA|
BDGB ADFA|BDGB cAFA|BDGB ADFA|defd cAGF||

